symbols/web/output/materialsymbolsoutlined/output_wght300gradN25fill1_40px.svg

<svg xmlns="http://www.w3.org/2000/svg" height="40" width="40"><path d="M8.458 34.042q-1 0-1.75-.75t-.75-1.75V8.458q0-1 .75-1.75t1.75-.75h23.084q1 0 1.75.75t.75 1.75v2.875h-2V8.458q0-.166-.167-.333t-.333-.167H8.458q-.166 0-.333.167t-.167.333v23.084q0 .166.167.333t.333.167h23.084q.166 0 .333-.167t.167-.333V28.5h2v3.042q0 1-.75 1.75t-1.75.75Zm19.667-6.667L26.708 26l4.959-5H16.25v-2h15.417l-4.959-5 1.417-1.417L35.5 20Z"/></svg>

<svg xmlns="http://www.w3.org/2000/svg" height="40" width="40"><path d="M8.458 34.042Q7.458 34.042 6.708 33.292Q5.958 32.542 5.958 31.542V8.458Q5.958 7.458 6.708 6.708Q7.458 5.958 8.458 5.958H31.542Q32.542 5.958 33.292 6.708Q34.042 7.458 34.042 8.458V11.333H32.042V8.458Q32.042 8.292 31.875 8.125Q31.708 7.958 31.542 7.958H8.458Q8.292 7.958 8.125 8.125Q7.958 8.292 7.958 8.458V31.542Q7.958 31.708 8.125 31.875Q8.292 32.042 8.458 32.042H31.542Q31.708 32.042 31.875 31.875Q32.042 31.708 32.042 31.542V28.5H34.042V31.542Q34.042 32.542 33.292 33.292Q32.542 34.042 31.542 34.042ZM28.125 27.375 26.708 26 31.667 21H16.25V19H31.667L26.708 14L28.125 12.583L35.5 20Z"/></svg>
